Simply black circles/symbolic/panel/nm-no-connection-symbolic.svg

<?xml version="1.0" encoding="UTF-8" standalone="no"?>
<!-- Created with Inkscape (http://www.inkscape.org/) -->

<svg
   xmlns:dc="http://purl.org/dc/elements/1.1/"
   xmlns:cc="http://creativecommons.org/ns#"
   xmlns:rdf="http://www.w3.org/1999/02/22-rdf-syntax-ns#"
   xmlns:svg="http://www.w3.org/2000/svg"
   xmlns="http://www.w3.org/2000/svg"
   xmlns:sodipodi="http://sodipodi.sourceforge.net/DTD/sodipodi-0.dtd"
   xmlns:inkscape="http://www.inkscape.org/namespaces/inkscape"
   version="1.1"
   width="24"
   height="24"
   id="svg2906"
   sodipodi:docname="nm-no-connection.svg"
   inkscape:version="0.92.3 (2405546, 2018-03-11)">
  <sodipodi:namedview
     pagecolor="#ffffff"
     bordercolor="#666666"
     borderopacity="1"
     objecttolerance="10"
     gridtolerance="10"
     guidetolerance="10"
     inkscape:pageopacity="0"
     inkscape:pageshadow="2"
     inkscape:window-width="1366"
     inkscape:window-height="719"
     id="namedview18"
     showgrid="false"
     inkscape:zoom="22.166667"
     inkscape:cx="11.954887"
     inkscape:cy="12"
     inkscape:window-x="0"
     inkscape:window-y="25"
     inkscape:window-maximized="1"
     inkscape:current-layer="svg2906"
     showguides="true"
     inkscape:guide-bbox="true"
     inkscape:snap-global="false" />
  <metadata
     id="metadata3009">
    <rdf:RDF>
      <cc:Work
         rdf:about="">
        <dc:format>image/svg+xml</dc:format>
        <dc:type
           rdf:resource="http://purl.org/dc/dcmitype/StillImage" />
        <dc:title></dc:title>
      </cc:Work>
    </rdf:RDF>
  </metadata>
  <defs
     id="defs2908">
    <clipPath
       id="clipPath2915">
      <rect
         width="4.0000005"
         height="15.000033"
         x="-202.00041"
         y="21"
         transform="matrix(0,-1,1,0,0,0)"
         id="rect2917"
         style="color:#000000;fill:#000000;fill-opacity:1;stroke:none;stroke-width:2;marker:none;visibility:visible;display:inline;overflow:visible;enable-background:accumulate" />
    </clipPath>
    <clipPath
       id="clipPath2854">
      <rect
         width="1.1249844"
         height="4.1250067"
         x="27.375002"
         y="221.875"
         id="rect2856"
         style="color:#000000;fill:#000000;fill-opacity:1;stroke:none;stroke-width:2;marker:none;visibility:visible;display:inline;overflow:visible;enable-background:accumulate" />
    </clipPath>
    <clipPath
       id="clipPath2920">
      <path
         d="m 27.545458,222.48863 0,-0.57954 1.738637,0 0,4.05682 -1.738637,0 0,-0.57955 -0.579545,0 0,-2.89773 0.579545,0 z"
         id="path2922"
         style="color:#000000;fill:#000000;fill-opacity:1;fill-rule:nonzero;stroke:none;stroke-width:2;marker:none;visibility:visible;display:inline;overflow:visible;enable-background:accumulate" />
    </clipPath>
    <clipPath
       clipPathUnits="userSpaceOnUse"
       id="clipPath851">
      <ellipse
         style="opacity:1;fill:#cccccc;fill-opacity:1;fill-rule:nonzero;stroke:none;stroke-width:0.37880188;stroke-linecap:round;stroke-linejoin:round;stroke-miterlimit:4;stroke-dasharray:none;stroke-opacity:1;paint-order:normal"
         id="ellipse853"
         cx="7.9909444"
         cy="40.182869"
         rx="7.5484991"
         ry="7.490562" />
    </clipPath>
    <clipPath
       clipPathUnits="userSpaceOnUse"
       id="clipPath835">
      <ellipse
         style="opacity:1;fill:#cccccc;fill-opacity:1;fill-rule:nonzero;stroke:none;stroke-width:0.29710582;stroke-linecap:round;stroke-linejoin:round;stroke-miterlimit:4;stroke-dasharray:none;stroke-opacity:1;paint-order:normal"
         id="ellipse837"
         cx="23.62096"
         cy="24.499601"
         rx="21.006697"
         ry="21.050003" />
    </clipPath>
    <clipPath
       clipPathUnits="userSpaceOnUse"
       id="clipPath831">
      <ellipse
         style="opacity:1;fill:#cccccc;fill-opacity:1;fill-rule:nonzero;stroke:none;stroke-width:0.29710582;stroke-linecap:round;stroke-linejoin:round;stroke-miterlimit:4;stroke-dasharray:none;stroke-opacity:1;paint-order:normal"
         id="ellipse833"
         cx="23.62096"
         cy="24.499601"
         rx="21.006697"
         ry="21.050003" />
    </clipPath>
    <clipPath
       clipPathUnits="userSpaceOnUse"
       id="clipPath827">
      <ellipse
         style="opacity:1;fill:#cccccc;fill-opacity:1;fill-rule:nonzero;stroke:none;stroke-width:0.29710582;stroke-linecap:round;stroke-linejoin:round;stroke-miterlimit:4;stroke-dasharray:none;stroke-opacity:1;paint-order:normal"
         id="ellipse829"
         cx="23.62096"
         cy="24.499601"
         rx="21.006697"
         ry="21.050003" />
    </clipPath>
  </defs>
  <path
     style="opacity:1;fill:#808080;fill-opacity:1;stroke:none;stroke-width:0.74858755;stroke-miterlimit:4;stroke-dasharray:none;stroke-opacity:1"
     d="M 20.386719 2.0253906 L 17.574219 4.8378906 A 5.9774437 5.9774437 0 0 0 14.248047 3.8203125 A 5.9774437 5.9774437 0 0 0 10.003906 5.5976562 L 18.451172 14.046875 A 5.9774437 5.9774437 0 0 0 20.226562 9.796875 A 5.9774437 5.9774437 0 0 0 19.279297 6.578125 L 22.109375 3.7480469 L 20.386719 2.0253906 z M 9.5117188 7.2128906 L 6.8964844 9.828125 L 8.171875 11.103516 L 10.787109 8.4882812 L 9.5117188 7.2128906 z M 11.511719 9.2128906 L 8.8964844 11.828125 L 10.171875 13.103516 L 12.787109 10.488281 L 11.511719 9.2128906 z M 5.4609375 10.048828 A 5.9774437 5.9774437 0 0 0 3.7285156 14.248047 A 5.9774437 5.9774437 0 0 0 4.7460938 17.578125 L 1.7109375 20.613281 L 3.4316406 22.335938 L 6.484375 19.283203 A 5.9774437 5.9774437 0 0 0 9.7050781 20.226562 A 5.9774437 5.9774437 0 0 0 13.908203 18.498047 L 5.4609375 10.048828 z M 13.511719 11.212891 L 10.896484 13.828125 L 12.171875 15.103516 L 14.787109 12.488281 L 13.511719 11.212891 z M 15.511719 13.212891 L 12.896484 15.828125 L 14.171875 17.103516 L 16.787109 14.488281 L 15.511719 13.212891 z "
     id="path837" />
</svg>

<svg xmlns="http://www.w3.org/2000/svg" width="24" height="24"><path d="M20.387 2.025l-2.813 2.813a5.977 5.977 0 0 0-3.326-1.018 5.977 5.977 0 0 0-4.244 1.778l8.447 8.449a5.977 5.977 0 0 0 1.776-4.25 5.977 5.977 0 0 0-.948-3.219l2.83-2.83-1.722-1.723zM9.512 7.213L6.896 9.828l1.276 1.276 2.615-2.616-1.275-1.275zm2 2l-2.616 2.615 1.276 1.276 2.615-2.616-1.275-1.275zm-6.051.836a5.977 5.977 0 0 0-1.732 4.199 5.977 5.977 0 0 0 1.017 3.33l-3.035 3.035 1.72 1.723 3.053-3.053a5.977 5.977 0 0 0 3.221.944 5.977 5.977 0 0 0 4.203-1.729l-8.447-8.45zm8.05 1.164l-2.615 2.615 1.276 1.276 2.615-2.616-1.275-1.275zm2 2l-2.615 2.615 1.276 1.276 2.615-2.616-1.275-1.275z" fill="gray"/></svg>
